X: 306
M:C|
L:1/8
K:A
aece T(fe)(dc) | defg aedc | Bbfb (ag)(fa) || Aece Aece |Aeca T(fe)(dc) | Bf^df Bfdf |
bB^df bfga | Aece Aece | Aeca T(fe)(dc) | defg aedc | Bbfb (ag)(fa) |]


